!!!COM: Palestrina, Giovanni Perluigi da
!!!OPR: Missa Illumina oculos meos
!!!OTL: Kyrie II
**kern	**kern	**kern	**kern	**kern	**kern
*Ibass	*Ibarit	*Itenor	*Itenor	*Icalto	*Icant
!Bassus	!Baritone	!Tenor 2	!Tenor 1	!Altus	!Cantus
*clefF4	*clefF4	*clefGv2	*clefGv2	*clefG2	*clefG2
*k[]	*k[]	*k[]	*k[]	*k[]	*k[]
*E:phr	*E:phr	*E:phr	*E:phr	*E:phr	*E:phr
*M4/2	*M4/2	*M4/2	*M4/2	*M4/2	*M4/2
=1	=1	=1	=1	=1	=1
0r	0r	0r	0r	0r	0e
=2	=2	=2	=2	=2	=2
0r	0r	0r	0r	0e	1e
.	.	.	.	.	[1g
=3	=3	=3	=3	=3	=3
0r	0r	0r	0r	1e	1g]
.	.	.	.	1g	2.e
.	.	.	.	.	4f
=4	=4	=4	=4	=4	=4
0r	0r	0r	0r	2.e	2g
.	.	.	.	.	2.e
.	.	.	.	4f	.
.	.	.	.	2g	.
.	.	.	.	.	4f
.	.	.	.	[2e	2g
=5	=5	=5	=5	=5	=5
0r	0r	0r	1r	4e]	2.c
.	.	.	.	4f	.
.	.	.	.	2g	.
.	.	.	.	.	4d
.	.	.	[1A	2.c	2e
.	.	.	.	.	4A
.	.	.	.	4d	4B
=6	=6	=6	=6	=6	=6
0r	0r	0r	1A]	2e	4c
.	.	.	.	.	4d
.	.	.	.	4c	2e
.	.	.	.	4d	.
.	.	.	1A	4e	4c
.	.	.	.	4c	4A
.	.	.	.	[2f	[2a
=7	=7	=7	=7	=7	=7
0r	0r	0r	1c	2f]	2a]
.	.	.	.	4e	2g
.	.	.	.	4d	.
.	.	.	2.A	2e	2.cc
.	.	.	.	2f	.
.	.	.	4B	.	8b
.	.	.	.	.	8a
=8	=8	=8	=8	=8	=8
0r	0r	1r	2c	0e	2g
.	.	.	2.A	.	2.cc
.	.	[1A	.	.	.
.	.	.	4B	.	4b
.	.	.	2c	.	[2a
=9	=9	=9	=9	=9	=9
0r	0r	1A]	2.F	2.f	4a]
.	.	.	.	.	4g
.	.	.	.	.	2f
.	.	.	4G	8e	.
.	.	.	.	8d	.
.	.	1A	2A	2c	2e
.	.	.	2D	2d	[2f
=10	=10	=10	=10	=10	=10
0r	0r	1c	2.A	1e	4f]
.	.	.	.	.	4e
.	.	.	.	.	1e
.	.	.	4G	.	.
.	.	2.A	1F	2r	.
.	.	.	.	[2A	2d
.	.	4B	.	.	.
=11	=11	=11	=11	=11	=11
0AA	0r	2c	1E	4A]	1e
.	.	.	.	4B	.
.	.	2.A	.	1c	.
.	.	.	2r	.	2.a
.	.	4B	.	.	.
.	.	2c	2e	2A	.
.	.	.	.	.	4b
=12	=12	=12	=12	=12	=12
1AA	0E	2A	2.c	0e	2cc
.	.	1c	.	.	2a
.	.	.	4d	.	.
[1C	.	.	2e	.	1g
.	.	4B	[2E	.	.
.	.	4A	.	.	.
=13	=13	=13	=13	=13	=13
1C]	1E	1G	2E]	[0e	1cc
.	.	.	2.G	.	.
2.E	1G	2r	.	.	[1b
.	.	.	4A	.	.
.	.	[2E	[2B	.	.
4F	.	.	.	.	.
=14	=14	=14	=14	=14	=14
2G	2.E	4E]	2B]	1e_	1b]
.	.	4F	.	.	.
2.E	.	2G	2.G	.	.
.	4F	.	.	.	.
.	2G	2.E	.	1e_	2r
4F	.	.	4A	.	.
2G	[2E	.	2B	.	2b
.	.	4F	.	.	.
=15	=15	=15	=15	=15	=15
2.C	4E]	2G	2.E	0e]	2.cc
.	4F	.	.	.	.
.	2G	2C	.	.	.
4D	.	.	4F	.	8b
.	.	.	.	.	8a
2E	2.C	2.c	2G	.	2g
[2AA	.	.	2C	.	[2a
.	4D	4B	.	.	.
=16	=16	=16	=16	=16	=16
4AA]	1E	2A	1c	2r	4a]
4BB	.	.	.	.	8g
.	.	.	.	.	8f
2C	.	2G	.	1c	2e
2.FF	2r	2.F	[1A	.	4f
.	.	.	.	.	4g
.	2F	.	.	[2A	4a
4GG	.	8E	.	.	4b
.	.	8D	.	.	.
=17	=17	=17	=17	=17	=17
2AA	2E	2C	1A]	4A]	[0cc
.	.	.	.	4B	.
2.FF	2.A	2.c	.	2c	.
.	.	.	2.c	2A	.
4GG	4G	4B	.	.	.
4AA	2F	2A	.	[2c	.
4BB	.	.	4d	.	.
=18	=18	=18	=18	=18	=18
0C	2E	[0G	4e	4c]	1cc]
.	.	.	4f	4d	.
.	2C	.	2.e	4e	.
.	.	.	.	4f	.
.	2.E	.	.	1e	[1g
.	.	.	4d	.	.
.	.	.	[2c	.	.
.	4F	.	.	.	.
=19	=19	=19	=19	=19	=19
0GG	0G	1G]	2c]	0d	0g]
.	.	.	4B	.	.
.	.	.	4A	.	.
.	.	2r	1B	.	.
.	.	[2G	.	.	.
=20	=20	=20	=20	=20	=20
1C	1E	2G]	1c	2r	1r
.	.	2C	.	2e	.
1r	2.A	2.c	1r	2e	2r
.	.	.	.	2e	2a
.	4G	4B	.	.	.
=21	=21	=21	=21	=21	=21
0r	1F	1A	0r	1d	2a
.	.	.	.	.	2a
.	1E	1B	.	1e	1g
=22	=22	=22	=22	=22	=22
0r	1D	0r	0r	2.f	1a
.	.	.	.	8e	.
.	.	.	.	8d	.
.	2.A	.	.	2e	2.cc
.	.	.	.	[2c	.
.	4G	.	.	.	4b
=23	=23	=23	=23	=23	=23
0r	2F	1r	2r	2c]	2a
.	2G	.	2d	2B	2g
.	1D	2r	2d	1A	1f
.	.	2A	2d	.	.
=24	=24	=24	=24	=24	=24
0r	1AA	2A	1c	0r	0e
.	.	2A	.	.	.
.	1E	1G	1B	.	.
=25	=25	=25	=25	=25	=25
0r	0AA	1A	2.c	1r	2r
.	.	.	.	.	1cc
.	.	.	4B	.	.
.	.	2.c	4A	1e	.
.	.	.	4G	.	.
.	.	.	[2A	.	2a
.	.	4B	.	.	.
=26	=26	=26	=26	=26	=26
0r	0r	2A	2A]	2e	2cc
.	.	2G	2E	2e	2.b
.	.	1F	2r	1d	.
.	.	.	.	.	4a
.	.	.	2A	.	[2a
=27	=27	=27	=27	=27	=27
2r	0r	1E	2c	0e	2a]
2E	.	.	4B	.	4g
.	.	.	4A	.	4f
2E	.	2r	4B	.	1g
.	.	.	4c	.	.
2E	.	2B	[2B	.	.
=28	=28	=28	=28	=28	=28
1D	0r	2.d	4B]	1f	1a
.	.	.	4A	.	.
.	.	.	1A	.	.
.	.	4c	.	.	.
1E	.	1B	.	2.e	1r
.	.	.	2G	.	.
.	.	.	.	4d	.
=29	=29	=29	=29	=29	=29
2.F	2r	2.A	2A	1c	1r
.	2A	.	4F	.	.
4E	.	4G	4G	.	.
2D	2A	2F	4A	1r	2r
.	.	.	4B	.	.
2C	2A	2E	2c	.	2a
=30	=30	=30	=30	=30	=30
1BB	1G	1D	1d	0r	2b
.	.	.	.	.	2b
1AA	1A	1E	2c	.	2.cc
.	.	.	2A	.	.
.	.	.	.	.	4b
=31	=31	=31	=31	=31	=31
0r	2.c	1r	2.e	0r	2a
.	.	.	.	.	2g
.	4B	.	4d	.	.
.	2A	1A	2c	.	2f
.	2G	.	2B	.	[2e
=32	=32	=32	=32	=32	=32
0r	1F	2A	1A	2r	2e]
.	.	2A	.	2A	2d
.	[1E	1G	2r	2B	1e
.	.	.	[2e	2B	.
=33	=33	=33	=33	=33	=33
1AA	0E]	1A	4e]	2.c	2r
.	.	.	4d	.	.
.	.	.	4c	.	2a
.	.	.	4B	4d	.
2AA	.	1c	2A	1e	2a
2AA	.	.	[2e	.	2a
=34	=34	=34	=34	=34	=34
1E	2r	1B	4e]	[0e	1g
.	.	.	4d	.	.
.	1E	.	2B	.	.
2.AA	.	[1A	2.c	.	1a
.	2E	.	.	.	.
4GG	.	.	4B	.	.
=35	=35	=35	=35	=35	=35
4AA	1E	2A]	2A	0e]	1.cc
4BB	.	.	.	.	.
1C	.	4G	2.e	.	.
.	.	4F	.	.	.
.	1G	1E	.	.	.
.	.	.	4d	.	.
2GG	.	.	2B	.	2b
=36	=36	=36	=36	=36	=36
0AA	0E	2.e	2.c	[0e	0a
.	.	4d	4B	.	.
.	.	1c	1A	.	.
=37	=37	=37	=37	=37	=37
0EE	0E	0B	0G#	0e]	0b
==	==	==	==	==	==
*-	*-	*-	*-	*-	*-
!!!CDT: 1525/^1526/-1594/2/2
!!!OCY: Italia
!!!AGN: Mass (Parody)
!!!AST: renaissance, vocal
!!!ASW: Motet (Silva)
!!!PWK: Masses, Book 10
!!!RNB: Cadence finals: G,C,A
!!!YOR: Le Opere Complete, v. 27, p. 155
!!!YOO: Rome, Italy: Fratelli Scalera
!!!END: 1992//
!!!EED: John Miller
!!!YEC: Copyright 2000, John Miller
!!!YEN: United States of America
!!!YEM: Rights to all derivative electronic formats reserved.
!!!YEM: Refer to licensing agreement for further details.
!!!YEM: This file must be accompanied by the licensing agreement.
!!!YEM: A copy of the licensing agreement may be found at http://www.music-cog.ohio-state.edu/HumdrumDatabases/Palestrina/license.txt
!!!EMD: converted to Humdrum by Bret Aarden
